X: 5
T: The Mountain Lark
R: reel
M: 4/4
L: 1/8
K: Edor
|F~E3 FEDE|F~E3 FABA|F~E3 FEDB,| ~D3E FABA|
|F~E3 FEDE|F~E3 FABA|F~E3 FEDB,| ~D3E FABA||
|B~e3 fded|Beec dBAd|B~e3 fded|~B3c dBAd|
|B~e3 f2ed|fgfe ~d3e|fdec dcBA|~B3c dcBA:|FEED E4||


Tune 884	Setting 29687

